icons/svg/tag-multiple--var.svg

<svg width="24" height="24" viewBox="0 0 24 24" fill="none" xmlns="http://www.w3.org/2000/svg">
<path d="M19.1401 10.0146L12.9313 3.80576C12.5562 3.43068 12.0475 3.21997 11.5171 3.21997L6.11536 3.21997C5.01079 3.21997 4.11536 4.1154 4.11536 5.21997L4.11536 10.6217C4.11536 11.1521 4.32607 11.6608 4.70114 12.0359L10.91 18.2448C12.0816 19.4163 13.9811 19.4163 15.1526 18.2448L19.1401 14.2573C20.3117 13.0857 20.3117 11.1862 19.1401 10.0146Z" stroke="currentColor" stroke-width="1.5" stroke-linecap="round" stroke-linejoin="round"/>
<circle cx="8.56154" cy="7.66687" r="1.13767" transform="rotate(-45 8.56154 7.66687)" fill="currentColor"/>
<path d="M3.70117 14.4558L9.49583 20.2505C11.4484 22.2031 14.6143 22.2031 16.5669 20.2505L20.2615 16.5559" stroke="currentColor" stroke-width="1.5" stroke-linecap="round" stroke-linejoin="round"/>
</svg>

<svg xmlns="http://www.w3.org/2000/svg" width="24" height="24" fill="none" viewBox="0 0 24 24"><path stroke="currentColor" stroke-linecap="round" stroke-linejoin="round" stroke-width="1.5" d="m19.14 10.015-6.209-6.21a2 2 0 0 0-1.414-.585H6.115a2 2 0 0 0-2 2v5.402a2 2 0 0 0 .586 1.414l6.209 6.209a3 3 0 0 0 4.243 0l3.987-3.988a3 3 0 0 0 0-4.242"/><circle cx="8.562" cy="7.667" r="1.138" fill="currentColor" transform="rotate(-45 8.562 7.667)"/><path stroke="currentColor" stroke-linecap="round" stroke-linejoin="round" stroke-width="1.5" d="m3.701 14.456 5.795 5.794a5 5 0 0 0 7.07 0l3.696-3.694"/></svg>
